hero/solid/arrow-down-circle.svg

<svg width="24" height="24" viewBox="0 0 24 24" fill="none" xmlns="http://www.w3.org/2000/svg">
<path fill-rule="evenodd" clip-rule="evenodd" d="M12 2.25C6.61522 2.25 2.25 6.61522 2.25 12C2.25 17.3848 6.61522 21.75 12 21.75C17.3848 21.75 21.75 17.3848 21.75 12C21.75 6.61522 17.3848 2.25 12 2.25ZM11.4697 16.2803C11.6103 16.421 11.8011 16.5 12 16.5C12.1989 16.5 12.3897 16.421 12.5303 16.2803L15.5303 13.2803C15.8232 12.9874 15.8232 12.5126 15.5303 12.2197C15.2374 11.9268 14.7626 11.9268 14.4697 12.2197L12.75 13.9393L12.75 8.25C12.75 7.83579 12.4142 7.5 12 7.5C11.5858 7.5 11.25 7.83579 11.25 8.25L11.25 13.9393L9.53033 12.2197C9.23744 11.9268 8.76256 11.9268 8.46967 12.2197C8.17678 12.5126 8.17678 12.9874 8.46967 13.2803L11.4697 16.2803Z" fill="#0F172A"/>
</svg>

<svg viewBox="0 0 24 24" xmlns="http://www.w3.org/2000/svg"><path fill-rule="evenodd" d="M12 2.25c-5.385 0-9.75 4.36-9.75 9.75 0 5.38 4.36 9.75 9.75 9.75 5.38 0 9.75-4.37 9.75-9.75 0-5.39-4.37-9.75-9.75-9.75Zm-.53 14.03h-.001c.29.29.76.29 1.06 0l3-3v0c.3-.29.31-.76.03-1.06 -.29-.31-.76-.32-1.06-.04 -.02.01-.03.02-.04.03l-1.72 1.72V8.24v0c0-.42-.34-.75-.75-.75 -.42 0-.75.33-.75.75v5.69l-1.72-1.72h-.001c-.31-.29-.78-.27-1.06.03 -.27.28-.27.73 0 1.02l3 3Z"/></svg>
